X: 20832
T: Johnny's Twentyfirst
R: jig
M: 6/8
K: Dmajor
D2D ADA|d2e fed|D2D DFA|BAF AFE|
D2D ADA|d2e fed|BdB AFA|B2B AFE:|
f2f def|g2e fed|f2f def|gab agf|
a2f gfe|f2f gfe|BdB AFA|B2B AFE:|

